X: 16202
T: Green Tree, The
R: jig
M: 6/8
K: Gminor
C|B,DF d3|Gcd e3|dcB fdB|dBG FDC|
B,DF d3|Gcd e3|dcB Acf|B3B z:|
|:A|bfd B3|dBG F3|GFE DFB|Gce dcB|
bfd Bdf|edc Gce|dcB Acf|B3Bz:|

